masters/ficus-icon-optimised.svg

<?xml version="1.0" encoding="UTF-8"?>
<svg width="512" height="512" version="1.1" viewBox="0 0 512 512" xmlns="http://www.w3.org/2000/svg" xmlns:cc="http://creativecommons.org/ns#" xmlns:dc="http://purl.org/dc/elements/1.1/" xmlns:rdf="http://www.w3.org/1999/02/22-rdf-syntax-ns#">
 <metadata>
  <rdf:RDF>
   <cc:Work rdf:about="">
    <dc:format>image/svg+xml</dc:format>
    <dc:type rdf:resource="http://purl.org/dc/dcmitype/StillImage"/>
    <dc:title/>
   </cc:Work>
  </rdf:RDF>
 </metadata>
 <defs>
  <linearGradient id="a" x1="21.418" x2="85.096" y1="9.663" y2="97.758" gradientTransform="matrix(4.916 0 0 4.9164 .015116 0)" gradientUnits="userSpaceOnUse">
   <stop stop-color="#63E48B" offset=".201"/>
   <stop stop-color="#54E4E5" offset=".72"/>
  </linearGradient>
 </defs>
 <path d="m512 0h-373.79c-76.017 0-138.21 62.196-138.21 138.21v373.79h373.78c76.017 0 138.21-62.196 138.21-138.21v-373.79zm-442.13 275.18h169.01v166.97h-169.01zm303.92 166.97h-65.061v-236.83h-238.86v-67.106c0-37.693 30.667-68.361 68.36-68.361h303.93v303.93c-4e-3 37.697-30.667 68.361-68.364 68.361z" fill="url(#a)" stroke-width="3.7795"/>
</svg>

<svg viewBox="0 0 512 512" xmlns="http://www.w3.org/2000/svg"><defs><linearGradient id="a" x1="21.418" x2="85.096" y1="9.663" y2="97.758" gradientTransform="matrix(4.916 0 0 4.9164 .015 0)" gradientUnits="userSpaceOnUse"><stop stop-color="#63E48B" offset=".201"/><stop stop-color="#54E4E5" offset=".72"/></linearGradient></defs><path d="M512 0H138.21C62.193 0 0 62.196 0 138.21V512h373.78c76.017 0 138.21-62.196 138.21-138.21V0zM69.87 275.18h169.01v166.97H69.87zm303.92 166.97h-65.061V205.32H69.869v-67.106c0-37.693 30.667-68.361 68.36-68.361h303.93v303.93c-.004 37.697-30.667 68.361-68.364 68.361z" fill="url(#a)"/></svg>
